X:1
T:Title
%%score { ( 1 3 ) | ( 2 4 ) }
L:1/8
M:4/4
K:Bb
V:1 bass nm="Grand Piano"
V:3 bass 
V:2 treble 
V:4 treble 
V:1
 z8[Q:1/4=100] | z4[K:treble] z F3 | B6 z2 | B6 z2 | [DB]6[K:bass][K:treble] z2 | d6 z2 | d6 z2 | %7
 B6 z2 |[M:5/8] B-B- B3 |[M:2/4] [DF][DF] [DF][EG] | [EG] [DF]3 | [DF]B Bc | c [Fd]3 | %13
 [DF][DFB] [CEB]B | Ad cB | G[=Ec] [Ed][EG] | z c3 | F[DF] [DF][EG] | [EG] [DF]3 | [DF]B Bc | %20
 c [Fd]3 | [DF][DFB] [CEB]B | Ad cB | GF dc |[M:7/16] z B/-B-<B- | B z/ z/ z/ z |] %26
V:2
 z4 z BBB | B6[K:bass] z2 | D6 z2 | G,6 z2 | B,,4- B,,[K:treble]FGA | B4- BFGA | %6
 BB,[G,B,][G,B,] B,GFE | D6[K:bass] z2 |[M:5/8] F, z z z2 |[M:2/4] [B,,B,][B,,B,] [B,,B,][B,,B,] | %10
 [B,,B,] [B,,B,]3 | [B,,B,][G,B,D] [G,B,D][F,A,F] | [F,A,F] [B,,B,]3 | [B,,B,]B,, B,,[D,B,D] | %14
 [F,C][B,D] [F,A,E][G,B,D] | [G,B,D][C,B,] [C,B,][C,B,] | [C,B,][A,F] B,C | %17
 [F,A,][B,,B,] [B,,B,][B,,B,] | [B,,B,] [B,,B,]3 | [B,,B,][G,B,D] [G,B,D][F,A,F] | %20
 [F,A,F] [B,,B,]3 | [B,,B,]B,, B,,[D,B,D] | [F,C][B,D] [F,A,E][G,B,D] | %23
 [G,B,D][F,B,D] [F,B,F][F,A,E] |[M:7/16] [F,A,E] z G,F,/- | F, z/ z/ z/ z |] %26
V:3
 x8 | z [F,D][B,D][K:treble][CE] .[DF]2 GA | z FFF FBBB | z EEE E2 [EB]2 | %4
 z[K:bass] B,A,G, F,[K:treble]ddd | z B,B,B, B,ddd | z FGG Fddc | z B,B,B, B,2 c2 |[M:5/8] DED ED | %9
[M:2/4] x4 | x4 | x4 | x4 | x4 | x4 | x4 | .[=Ed]2 GA | x4 | x4 | x4 | x4 | x4 | x4 | x4 | %24
[M:7/16] F[B,D]ED/- | D z/ z/ z/ z |] %26
V:4
 x8 | z[K:bass] B,,B,,B,, B,,A,B,C | z B,,B,,B,, B,,F,_A,A, | z E,E,E, E,2 [G,,G,]2 | %4
 .F,2 z2 z4[K:treble] | x8 | x8 | z[K:bass] G,G,G, F,2 [F,E]2 | %8
[M:5/8] B,,-[B,,-G,][B,,-F,] [B,,-G,][B,,F,] |[M:2/4] x4 | x4 | x4 | x4 | x4 | x4 | x4 | z F,3 | %17
 x4 | x4 | x4 | x4 | x4 | x4 | x4 |[M:7/16] z B,,/-B,,-<B,,- | B,, z/ z/ z/ z |] %26

